public/library/devcon-text-light.svg

<svg xmlns="http://www.w3.org/2000/svg" viewBox="0 0 162 38" fill="#FFFFFF"><title>Devcon logo</title><path d="M42.5352 12.037H49.1515C54.1978 12.037 57.6297 15.2221 57.6297 19.8872C57.6297 24.5524 54.1984 27.7374 49.1515 27.7374H42.5352V12.037ZM49.0167 25.7857C52.8969 25.7857 55.3867 23.4085 55.3867 19.8867C55.3867 16.3655 52.8969 13.9877 49.0167 13.9877H44.7776V25.7852H49.0167V25.7857Z"></path><path d="M76.9424 25.7857V27.7369H65.5488V12.0365H76.6284V13.9877H67.7918V18.8099H75.6642V20.7161H67.7918V25.7846H76.9424V25.7857Z"></path><path d="M98.4753 12.037L91.5899 27.7374H89.3691L82.4609 12.037H84.8831L90.5353 24.9336L96.2318 12.037H98.4753Z"></path><path d="M103.523 19.8867C103.523 15.2443 107.067 11.8573 111.845 11.8573C114.267 11.8573 116.375 12.6873 117.811 14.3017L116.353 15.7147C115.142 14.4365 113.662 13.8534 111.935 13.8534C108.391 13.8534 105.766 16.4104 105.766 19.8867C105.766 23.3635 108.391 25.9205 111.935 25.9205C113.662 25.9205 115.142 25.3147 116.353 24.0365L117.811 25.4495C116.376 27.0639 114.267 27.9166 111.822 27.9166C107.067 27.9161 103.523 24.5302 103.523 19.8867Z"></path><path d="M123.891 19.8867C123.891 15.2892 127.435 11.8573 132.257 11.8573C137.034 11.8573 140.578 15.2659 140.578 19.8867C140.578 24.5075 137.035 27.9161 132.257 27.9161C127.435 27.9161 123.891 24.4853 123.891 19.8867ZM138.335 19.8867C138.335 16.4104 135.733 13.8534 132.257 13.8534C128.736 13.8534 126.134 16.4104 126.134 19.8867C126.134 23.3635 128.736 25.9205 132.257 25.9205C135.733 25.9205 138.335 23.3635 138.335 19.8867Z"></path><path d="M161.998 12.037V27.7374H160.159L150.739 16.0293V27.7369H148.496V12.0365H150.335L159.755 23.7441V12.037H161.998Z"></path><path d="M21.9999 19.0913L10.9971 0L0 19.0913L11.0027 26.0953L21.9999 19.0913ZM11.7962 12.6972V4.58854L18.7451 16.6456L11.7962 12.6972ZM19.396 18.8542L11.7962 23.6947V14.5361L19.396 18.8542ZM10.1976 12.6972L3.25602 16.6416L10.1976 4.59055V12.6972ZM10.1976 14.5361V23.6879L2.60143 18.8521L10.1976 14.5361Z"></path><path d="M10.9965 28.3581L0.00585938 21.3541L10.9969 37.418L21.9997 21.3541L10.9965 28.3581ZM10.1378 29.7063L10.1974 29.7446V33.4189L5.74012 26.904L10.1378 29.7063ZM16.2626 26.9012L11.796 33.4221V29.7442L11.8552 29.7063L16.2626 26.9012Z"></path></svg>

<svg xmlns="http://www.w3.org/2000/svg" fill="#fff" viewBox="0 0 162 38"><title>Devcon logo</title><path d="M42.535 12.037h6.617c5.046 0 8.478 3.185 8.478 7.85s-3.432 7.85-8.479 7.85h-6.616zm6.482 13.749c3.88 0 6.37-2.378 6.37-5.9 0-3.52-2.49-5.898-6.37-5.898h-4.24v11.797zM76.942 25.786v1.95H65.55v-15.7h11.08v1.952h-8.837v4.822h7.872v1.906h-7.872v5.069h9.15M98.475 12.037l-6.885 15.7h-2.22l-6.91-15.7h2.423l5.652 12.897 5.697-12.897zM103.523 19.887c0-4.643 3.544-8.03 8.322-8.03 2.422 0 4.53.83 5.966 2.445l-1.458 1.413c-1.211-1.278-2.691-1.862-4.418-1.862-3.544 0-6.169 2.557-6.169 6.034s2.625 6.034 6.169 6.034c1.727 0 3.207-.606 4.418-1.884l1.458 1.413c-1.435 1.614-3.544 2.467-5.989 2.467-4.755 0-8.299-3.387-8.299-8.03M123.891 19.887c0-4.598 3.544-8.03 8.366-8.03 4.777 0 8.321 3.409 8.321 8.03s-3.543 8.03-8.321 8.03c-4.822 0-8.366-3.432-8.366-8.03m14.444 0c0-3.477-2.602-6.034-6.078-6.034-3.521 0-6.123 2.557-6.123 6.034s2.602 6.034 6.123 6.034c3.476 0 6.078-2.558 6.078-6.034M161.998 12.037v15.7h-1.839l-9.42-11.708v11.708h-2.243v-15.7h1.839l9.42 11.707V12.037zM22 19.091 10.997 0 0 19.091l11.003 7.004zm-10.204-6.394V4.59l6.95 12.057zm7.6 6.157-7.6 4.84v-9.158zm-9.198-6.157-6.942 3.945L10.198 4.59zm0 1.84v9.15L2.6 18.853z"/><path d="M10.997 28.358.005 21.354l10.99 16.064L22 21.354zm-.86 1.348.06.039v3.674L5.74 26.904zm6.126-2.805-4.467 6.521v-3.678l.06-.038z"/></svg>
